icon_installer/data/icons/scalable/actions/show-pub-symbolic.svg

<?xml version="1.0" encoding="UTF-8"?>
<svg height="16px" viewBox="0 0 16 16" width="16px" xmlns="http://www.w3.org/2000/svg">
    <g fill="#222222">
        <path d="m 3 3 v 7.519531 c 0 1.375 1.105469 2.480469 2.480469 2.480469 h 4.039062 c 1.207031 0 2.207031 -0.855469 2.429688 -2 h 0.257812 c 1.53125 0 2.792969 -1.261719 2.792969 -2.792969 v -2.414062 c 0 -1.53125 -1.261719 -2.792969 -2.792969 -2.792969 h -5.207031 v 3.5 c 0 0.832031 -0.667969 1.5 -1.5 1.5 s -1.5 -0.667969 -1.5 -1.5 v -3.5 z m 9 2 h 0.207031 c 0.457031 0 0.792969 0.335938 0.792969 0.792969 v 2.414062 c 0 0.457031 -0.335938 0.792969 -0.792969 0.792969 h -0.207031 z m 0 0"/>
        <path d="m 4.296875 0 c -1.109375 0 -2 0.890625 -2 2 h 2.703125 v 4.5 c 0 0.277344 0.222656 0.5 0.5 0.5 s 0.5 -0.222656 0.5 -0.5 v -4.5 h 6.019531 c -0.34375 -0.597656 -0.980469 -1 -1.722656 -1 c -0.414063 0 -0.800781 0.125 -1.121094 0.339844 c -0.269531 -0.78125 -1.003906 -1.339844 -1.878906 -1.339844 c -0.601563 0 -1.132813 0.269531 -1.5 0.6875 c -0.367187 -0.417969 -0.898437 -0.6875 -1.5 -0.6875 z m 0 0"/>
    </g>
</svg>

<svg xmlns="http://www.w3.org/2000/svg" width="16" height="16"><g fill="#222"><path d="M3 3v7.52A2.474 2.474 0 0 0 5.48 13h4.04a2.47 2.47 0 0 0 2.43-2h.257A2.808 2.808 0 0 0 15 8.207V5.793A2.808 2.808 0 0 0 12.207 3H7v3.5C7 7.332 6.332 8 5.5 8S4 7.332 4 6.5V3zm9 2h.207a.77.77 0 0 1 .793.793v2.414a.77.77 0 0 1-.793.793H12zm0 0"/><path d="M4.297 0c-1.11 0-2 .89-2 2H5v4.5a.499.499 0 1 0 1 0V2h6.02c-.344-.598-.98-1-1.723-1-.414 0-.8.125-1.121.34a1.982 1.982 0 0 0-3.38-.653A1.99 1.99 0 0 0 4.297 0zm0 0"/></g></svg>
